symbolic/16x16/panel/si-syncthing-4.svg

<svg xmlns="http://www.w3.org/2000/svg" width="16" height="16" version="1.1">
 <defs>
  <style id="current-color-scheme" type="text/css">
   .ColorScheme-Text { color:#323a41; } .ColorScheme-Highlight { color:#4285f4; } .ColorScheme-NeutralText { color:#ff9800; } .ColorScheme-PositiveText { color:#4caf50; } .ColorScheme-NegativeText { color:#f44336; }
  </style>
 </defs>
 <path style="fill:currentColor" class="ColorScheme-Text" d="m 15,8 a 7,7 0 0 0 -6.9999999,-7 7,7 0 0 0 -7,7 A 7,7 0 0 0 8,15 7,7 0 0 0 15,8 Z m -2,-1e-7 A 5,5 0 0 1 8.9433596,12.908203 1.5,1.5 0 0 1 7.5,13.999999 1.5,1.5 0 0 1 6.0039069,12.578125 5,5 0 0 1 3.4179694,9.9960934 1.5,1.5 0 0 1 2.0000007,8.4999995 1.5,1.5 0 0 1 3.0937504,7.0566403 5,5 0 0 1 8.0000001,3 5,5 0 0 1 8.0859376,3.0019531 1.5,1.5 0 0 1 9.5000001,2 1.5,1.5 0 0 1 11,3.5 1.5,1.5 0 0 1 10.927735,3.9550781 5,5 0 0 1 13,7.9999999 Z m -1,2e-7 A 4,4 0 0 0 10.326172,4.751953 1.5,1.5 0 0 1 9.5000001,5 1.5,1.5 0 0 1 9.4394533,4.9960938 L 8.4882813,7.3730469 A 1.5,1.5 0 0 1 9.0000001,8.5 a 1.5,1.5 0 0 1 -1,1.4121094 l 0,1.1757816 A 1.5,1.5 0 0 1 8.8710938,11.898437 4,4 0 0 0 12,8.0000001 Z M 8.5117189,4.625 A 1.5,1.5 0 0 1 8.0898439,4.0039062 4,4 0 0 0 8.0000001,4 4,4 0 0 0 4.0996093,7.1269529 1.5,1.5 0 0 1 4.9121091,8 l 1.1757816,0 a 1.5,1.5 0 0 1 1.4121094,-1 1.5,1.5 0 0 1 0.060547,0.00391 L 8.5117189,4.625 Z M 7.0000002,9.9121091 A 1.5,1.5 0 0 1 6.087891,8.9999998 l -1.175782,3e-7 A 1.5,1.5 0 0 1 4.3867194,9.7050777 4,4 0 0 0 6.2929691,11.611328 1.5,1.5 0 0 1 7.000002,11.087894 l -1.8e-6,-1.1757849 z"/>
</svg>

<svg xmlns="http://www.w3.org/2000/svg" width="16" height="16"><defs><style id="current-color-scheme" type="text/css"></style></defs><path style="fill:currentColor;color:#323a41" d="M15 8a7 7 0 0 0-7-7 7 7 0 0 0-7 7 7 7 0 0 0 7 7 7 7 0 0 0 7-7zm-2 0a5 5 0 0 1-4.057 4.908A1.5 1.5 0 0 1 7.5 14a1.5 1.5 0 0 1-1.496-1.422 5 5 0 0 1-2.586-2.582A1.5 1.5 0 0 1 2 8.5a1.5 1.5 0 0 1 1.094-1.443A5 5 0 0 1 8 3a5 5 0 0 1 .086.002A1.5 1.5 0 0 1 9.5 2 1.5 1.5 0 0 1 11 3.5a1.5 1.5 0 0 1-.072.455A5 5 0 0 1 13 8zm-1 0a4 4 0 0 0-1.674-3.248A1.5 1.5 0 0 1 9.5 5a1.5 1.5 0 0 1-.06-.004l-.952 2.377A1.5 1.5 0 0 1 9 8.5a1.5 1.5 0 0 1-1 1.412v1.176a1.5 1.5 0 0 1 .871.81A4 4 0 0 0 12 8zM8.512 4.625a1.5 1.5 0 0 1-.422-.621A4 4 0 0 0 8 4a4 4 0 0 0-3.9 3.127A1.5 1.5 0 0 1 4.912 8h1.176A1.5 1.5 0 0 1 7.5 7a1.5 1.5 0 0 1 .06.004l.952-2.379zM7 9.912A1.5 1.5 0 0 1 6.088 9H4.912a1.5 1.5 0 0 1-.525.705 4 4 0 0 0 1.906 1.906A1.5 1.5 0 0 1 7 11.088V9.912z"/></svg>
